src/assets/images/logo.svg

<svg width="153" height="32" viewBox="0 0 153 32" fill="none" xmlns="http://www.w3.org/2000/svg">
<g clip-path="url(#clip0_1452_5273)">
<path d="M24 0H8C3.58172 0 0 3.58172 0 8V24C0 28.4183 3.58172 32 8 32H24C28.4183 32 32 28.4183 32 24V8C32 3.58172 28.4183 0 24 0Z" fill="url(#paint0_linear_1452_5273)"/>
<path d="M24 0H8C3.58172 0 0 3.58172 0 8V24C0 28.4183 3.58172 32 8 32H24C28.4183 32 32 28.4183 32 24V8C32 3.58172 28.4183 0 24 0Z" fill="url(#paint1_linear_1452_5273)"/>
<g filter="url(#filter0_d_1452_5273)">
<path d="M11.1329 22.0513C11.0362 21.7056 11.2228 21.3049 11.5496 21.1565L23.1405 15.8914C23.4674 15.7429 23.8107 15.9028 23.9074 16.2485L24.3249 17.7409C24.4216 18.0867 24.2351 18.4873 23.9082 18.6357L12.3173 23.9008C11.9905 24.0493 11.6471 23.8894 11.5504 23.5437L11.1329 22.0513Z" fill="white" fill-opacity="0.9"/>
<path d="M9.90349 18.2388C9.80669 17.8931 9.99329 17.4924 10.3202 17.344L21.911 12.0789C22.2379 11.9304 22.5812 12.0903 22.6779 12.436L23.0954 13.9284C23.1921 14.2742 23.0056 14.6748 22.6787 14.8232L11.0879 20.0883C10.761 20.2368 10.4176 20.0769 10.3209 19.7312L9.90349 18.2388Z" fill="white" fill-opacity="0.9"/>
<path d="M8.67493 14.4341C8.57823 14.0884 8.76483 13.6878 9.09163 13.5393L20.6825 8.27422C21.0094 8.12572 21.3527 8.28562 21.4494 8.63142L21.8669 10.1238C21.9636 10.4695 21.7771 10.8701 21.4502 11.0185L9.85933 16.2836C9.53253 16.4321 9.18913 16.2722 9.09243 15.9265L8.67493 14.4341Z" fill="white" fill-opacity="0.9"/>
</g>
<path d="M47.01 12.0923V14.365H40.4404V12.0923H47.01ZM41.9319 9.47872H44.9575V19.6491C44.9575 19.9285 45.0001 20.1463 45.0853 20.3025C45.1706 20.4541 45.2889 20.5606 45.4404 20.6221C45.5967 20.6837 45.7766 20.7145 45.9802 20.7145C46.1223 20.7145 46.2643 20.7026 46.4063 20.679C46.5484 20.6505 46.6573 20.6292 46.7331 20.615L47.2089 22.8665C47.0574 22.9138 46.8443 22.9683 46.5697 23.0298C46.2951 23.0961 45.9613 23.1363 45.5683 23.1505C44.8391 23.179 44.1999 23.0819 43.6507 22.8594C43.1062 22.6368 42.6824 22.2912 42.3794 21.8224C42.0763 21.3537 41.9272 20.7618 41.9319 20.0469V9.47872ZM53.7927 23.2145C52.6895 23.2145 51.7354 22.9801 50.9305 22.5113C50.1303 22.0379 49.5124 21.3797 49.0768 20.5369C48.6412 19.6894 48.4234 18.7069 48.4234 17.5895C48.4234 16.4626 48.6412 15.4777 49.0768 14.6349C49.5124 13.7874 50.1303 13.1292 50.9305 12.6605C51.7354 12.187 52.6895 11.9503 53.7927 11.9503C54.8959 11.9503 55.8476 12.187 56.6478 12.6605C57.4528 13.1292 58.073 13.7874 58.5086 14.6349C58.9442 15.4777 59.162 16.4626 59.162 17.5895C59.162 18.7069 58.9442 19.6894 58.5086 20.5369C58.073 21.3797 57.4528 22.0379 56.6478 22.5113C55.8476 22.9801 54.8959 23.2145 53.7927 23.2145ZM53.8069 20.8707C54.3088 20.8707 54.7278 20.7287 55.064 20.4446C55.4002 20.1558 55.6535 19.7628 55.824 19.2656C55.9992 18.7684 56.0867 18.2026 56.0867 17.5682C56.0867 16.9337 55.9992 16.3679 55.824 15.8707C55.6535 15.3736 55.4002 14.9806 55.064 14.6917C54.7278 14.4029 54.3088 14.2585 53.8069 14.2585C53.3003 14.2585 52.8742 14.4029 52.5285 14.6917C52.1876 14.9806 51.9296 15.3736 51.7544 15.8707C51.5839 16.3679 51.4987 16.9337 51.4987 17.5682C51.4987 18.2026 51.5839 18.7684 51.7544 19.2656C51.9296 19.7628 52.1876 20.1558 52.5285 20.4446C52.8742 20.7287 53.3003 20.8707 53.8069 20.8707ZM61.1862 23.0014V8.45592H64.2117V13.9247H64.3041C64.4367 13.6311 64.6284 13.3328 64.8794 13.0298C65.135 12.722 65.4665 12.4664 65.8737 12.2628C66.2856 12.0544 66.797 11.9503 67.4078 11.9503C68.2032 11.9503 68.9371 12.1586 69.6095 12.5753C70.2818 12.9872 70.8192 13.6098 71.2217 14.4432C71.6242 15.2718 71.8254 16.3111 71.8254 17.5611C71.8254 18.7779 71.6289 19.8054 71.2359 20.6434C70.8476 21.4768 70.3173 22.1089 69.645 22.5398C68.9774 22.9659 68.2293 23.179 67.4007 23.179C66.8135 23.179 66.314 23.0819 65.9021 22.8878C65.4949 22.6936 65.1611 22.4498 64.9007 22.1562C64.6403 21.8579 64.4414 21.5573 64.3041 21.2542H64.1691V23.0014H61.1862ZM64.1478 17.5469C64.1478 18.1955 64.2378 18.7613 64.4177 19.2443C64.5976 19.7273 64.8581 20.1037 65.199 20.3736C65.5399 20.6387 65.9542 20.7713 66.4419 20.7713C66.9343 20.7713 67.351 20.6363 67.6919 20.3665C68.0328 20.0918 68.2908 19.713 68.466 19.2301C68.6459 18.7424 68.7359 18.1813 68.7359 17.5469C68.7359 16.9171 68.6483 16.3631 68.4731 15.8849C68.2979 15.4067 68.0399 15.0326 67.699 14.7628C67.3581 14.4929 66.939 14.3579 66.4419 14.3579C65.9494 14.3579 65.5328 14.4881 65.1919 14.7486C64.8557 15.009 64.5976 15.3783 64.4177 15.8565C64.2378 16.3347 64.1478 16.8982 64.1478 17.5469ZM78.8158 23.2145C77.6936 23.2145 76.7277 22.9872 75.9181 22.5326C75.1131 22.0734 74.4929 21.4247 74.0573 20.5866C73.6217 19.7438 73.4039 18.7471 73.4039 17.5966C73.4039 16.4744 73.6217 15.4896 74.0573 14.642C74.4929 13.7945 75.106 13.134 75.8968 12.6605C76.6922 12.187 77.625 11.9503 78.6951 11.9503C79.4148 11.9503 80.0847 12.0663 80.705 12.2983C81.33 12.5255 81.8745 12.8688 82.3385 13.3281C82.8073 13.7874 83.1719 14.365 83.4323 15.0611C83.6927 15.7523 83.8229 16.562 83.8229 17.49V18.321H74.6113V16.446H80.9749C80.9749 16.0104 80.8802 15.6245 80.6908 15.2883C80.5014 14.9522 80.2386 14.6894 79.9024 14.5C79.571 14.3059 79.1851 14.2088 78.7448 14.2088C78.2855 14.2088 77.8783 14.3153 77.5232 14.5284C77.1728 14.7367 76.8982 15.0184 76.6993 15.3736C76.5005 15.7239 76.3987 16.1146 76.3939 16.5454V18.3281C76.3939 18.8679 76.4934 19.3343 76.6922 19.7273C76.8958 20.1202 77.1823 20.4233 77.5516 20.6363C77.9209 20.8494 78.3589 20.9559 78.8655 20.9559C79.2017 20.9559 79.5095 20.9086 79.7888 20.8139C80.0682 20.7192 80.3073 20.5772 80.5061 20.3878C80.705 20.1984 80.8565 19.9664 80.9607 19.6917L83.759 19.8764C83.6169 20.5487 83.3257 21.1359 82.8854 21.6378C82.4498 22.1349 81.8863 22.5232 81.1951 22.8025C80.5085 23.0772 79.7154 23.2145 78.8158 23.2145ZM88.8229 8.45592V23.0014H85.7973V8.45592H88.8229ZM91.2465 23.0014V12.0923H94.2721V23.0014H91.2465ZM92.7664 10.6861C92.3166 10.6861 91.9307 10.5369 91.6088 10.2386C91.2915 9.93562 91.1329 9.57342 91.1329 9.15202C91.1329 8.73532 91.2915 8.37782 91.6088 8.07952C91.9307 7.77651 92.3166 7.625 92.7664 7.625C93.2162 7.625 93.5998 7.77651 93.917 8.07952C94.2391 8.37782 94.4001 8.73532 94.4001 9.15202C94.4001 9.57342 94.2391 9.93562 93.917 10.2386C93.5998 10.5369 93.2162 10.6861 92.7664 10.6861ZM105.772 15.2031L103.002 15.3736C102.955 15.1368 102.853 14.9237 102.697 14.7344C102.541 14.5402 102.335 14.3863 102.079 14.2727C101.828 14.1543 101.528 14.0952 101.177 14.0952C100.708 14.0952 100.313 14.1946 99.9911 14.3934C99.6691 14.5876 99.5081 14.848 99.5081 15.1747C99.5081 15.4351 99.6121 15.6553 99.8211 15.8352C100.029 16.0151 100.386 16.1595 100.893 16.2684L102.868 16.6662C103.928 16.884 104.719 17.2344 105.24 17.7173C105.761 18.2003 106.021 18.8347 106.021 19.6207C106.021 20.3357 105.81 20.963 105.389 21.5028C104.972 22.0426 104.399 22.464 103.67 22.767C102.946 23.0653 102.11 23.2145 101.163 23.2145C99.7191 23.2145 98.5681 22.9138 97.7111 22.3125C96.8591 21.7064 96.3591 20.8826 96.2131 19.8409L99.1891 19.6846C99.2791 20.125 99.4961 20.4612 99.8421 20.6932C100.188 20.9204 100.63 21.0341 101.17 21.0341C101.7 21.0341 102.127 20.9323 102.449 20.7287C102.775 20.5203 102.941 20.2528 102.946 19.9261C102.941 19.6515 102.825 19.4266 102.598 19.2514C102.37 19.0715 102.02 18.9342 101.547 18.8395L99.6571 18.463C98.5921 18.25 97.7991 17.8807 97.2781 17.3551C96.7621 16.8295 96.5041 16.1595 96.5041 15.3452C96.5041 14.6444 96.6931 14.0407 97.0721 13.5341C97.4561 13.0274 97.9931 12.6368 98.6841 12.3622C99.3801 12.0876 100.195 11.9503 101.127 11.9503C102.505 11.9503 103.59 12.2415 104.38 12.8238C105.176 13.4062 105.64 14.1993 105.772 15.2031ZM113.729 12.0923V14.365H107.159V12.0923H113.729ZM108.651 9.47872H111.676V19.6491C111.676 19.9285 111.719 20.1463 111.804 20.3025C111.889 20.4541 112.008 20.5606 112.159 20.6221C112.315 20.6837 112.495 20.7145 112.699 20.7145C112.841 20.7145 112.983 20.7026 113.125 20.679C113.267 20.6505 113.376 20.6292 113.452 20.615L113.928 22.8665C113.776 22.9138 113.563 22.9683 113.288 23.0298C113.014 23.0961 112.68 23.1363 112.287 23.1505C111.558 23.179 110.919 23.0819 110.369 22.8594C109.825 22.6368 109.401 22.2912 109.098 21.8224C108.795 21.3537 108.646 20.7618 108.651 20.0469V9.47872ZM117.468 23.1861C116.999 23.1861 116.597 23.0203 116.261 22.6889C115.929 22.3527 115.763 21.9503 115.763 21.4815C115.763 21.0175 115.929 20.6198 116.261 20.2883C116.597 19.9569 116.999 19.7912 117.468 19.7912C117.923 19.7912 118.32 19.9569 118.661 20.2883C119.002 20.6198 119.173 21.0175 119.173 21.4815C119.173 21.794 119.092 22.0805 118.931 22.3409C118.775 22.5966 118.569 22.8025 118.313 22.9588C118.058 23.1103 117.776 23.1861 117.468 23.1861ZM124.682 16.6946V23.0014H121.657V12.0923H124.54V14.017H124.668C124.909 13.3826 125.314 12.8807 125.882 12.5113C126.451 12.1373 127.14 11.9503 127.949 11.9503C128.707 11.9503 129.367 12.116 129.931 12.4474C130.494 12.7789 130.932 13.2523 131.245 13.8679C131.557 14.4787 131.713 15.2078 131.713 16.0554V23.0014H128.688V16.5952C128.693 15.9275 128.522 15.4067 128.176 15.0326C127.831 14.6539 127.355 14.4645 126.749 14.4645C126.342 14.4645 125.982 14.5521 125.669 14.7273C125.362 14.9024 125.12 15.1581 124.945 15.4943C124.775 15.8257 124.687 16.2258 124.682 16.6946ZM139.07 23.2145C137.947 23.2145 136.982 22.9872 136.172 22.5326C135.367 22.0734 134.747 21.4247 134.311 20.5866C133.875 19.7438 133.658 18.7471 133.658 17.5966C133.658 16.4744 133.875 15.4896 134.311 14.642C134.747 13.7945 135.36 13.134 136.151 12.6605C136.946 12.187 137.879 11.9503 138.949 11.9503C139.669 11.9503 140.339 12.0663 140.959 12.2983C141.584 12.5255 142.128 12.8688 142.592 13.3281C143.061 13.7874 143.426 14.365 143.686 15.0611C143.946 15.7523 144.077 16.562 144.077 17.49V18.321H134.865V16.446H141.229C141.229 16.0104 141.134 15.6245 140.945 15.2883C140.755 14.9522 140.492 14.6894 140.156 14.5C139.825 14.3059 139.439 14.2088 138.999 14.2088C138.539 14.2088 138.132 14.3153 137.777 14.5284C137.427 14.7367 137.152 15.0184 136.953 15.3736C136.754 15.7239 136.652 16.1146 136.648 16.5454V18.3281C136.648 18.8679 136.747 19.3343 136.946 19.7273C137.15 20.1202 137.436 20.4233 137.805 20.6363C138.175 20.8494 138.613 20.9559 139.119 20.9559C139.455 20.9559 139.763 20.9086 140.043 20.8139C140.322 20.7192 140.561 20.5772 140.76 20.3878C140.959 20.1984 141.11 19.9664 141.214 19.6917L144.013 19.8764C143.871 20.5487 143.58 21.1359 143.139 21.6378C142.704 22.1349 142.14 22.5232 141.449 22.8025C140.762 23.0772 139.969 23.2145 139.07 23.2145ZM151.854 12.0923V14.365H145.284V12.0923H151.854ZM146.776 9.47872H149.801V19.6491C149.801 19.9285 149.844 20.1463 149.929 20.3025C150.014 20.4541 150.133 20.5606 150.284 20.6221C150.44 20.6837 150.62 20.7145 150.824 20.7145C150.966 20.7145 151.108 20.7026 151.25 20.679C151.392 20.6505 151.501 20.6292 151.577 20.615L152.053 22.8665C151.901 22.9138 151.688 22.9683 151.413 23.0298C151.139 23.0961 150.805 23.1363 150.412 23.1505C149.683 23.179 149.044 23.0819 148.494 22.8594C147.95 22.6368 147.526 22.2912 147.223 21.8224C146.92 21.3537 146.771 20.7618 146.776 20.0469V9.47872Z" fill="#313234"/>
</g>
<defs>
<filter id="filter0_d_1452_5273" x="5.64941" y="6.21875" width="21.7012" height="21.7344" filterUnits="userSpaceOnUse" color-interpolation-filters="sRGB">
<feFlood flood-opacity="0" result="BackgroundImageFix"/>
<feColorMatrix in="SourceAlpha" type="matrix" values="0 0 0 0 0 0 0 0 0 0 0 0 0 0 0 0 0 0 127 0" result="hardAlpha"/>
<feOffset dy="1"/>
<feGaussianBlur stdDeviation="1.5"/>
<feColorMatrix type="matrix" values="0 0 0 0 0.0745098 0 0 0 0 0.101961 0 0 0 0 0.160784 0 0 0 0.3 0"/>
<feBlend mode="normal" in2="BackgroundImageFix" result="effect1_dropShadow_1452_5273"/>
<feBlend mode="normal" in="SourceGraphic" in2="effect1_dropShadow_1452_5273" result="shape"/>
</filter>
<linearGradient id="paint0_linear_1452_5273" x1="23.5556" y1="3.44428e-07" x2="2.22222" y2="32" gradientUnits="userSpaceOnUse">
<stop offset="0.0833333" stop-color="#808BF7"/>
<stop offset="1" stop-color="#483DD0"/>
</linearGradient>
<linearGradient id="paint1_linear_1452_5273" x1="23.5556" y1="3.44428e-07" x2="2.22222" y2="32" gradientUnits="userSpaceOnUse">
<stop offset="0.0833333" stop-color="#2463FF"/>
<stop offset="1" stop-color="#195BFF"/>
</linearGradient>
<clipPath id="clip0_1452_5273">
<rect width="153" height="32" fill="white"/>
</clipPath>
</defs>
</svg>

<svg xmlns="http://www.w3.org/2000/svg" width="153" height="32" fill="none"><g clip-path="url(#a)"><path fill="url(#b)" d="M24 0H8a8 8 0 0 0-8 8v16a8 8 0 0 0 8 8h16a8 8 0 0 0 8-8V8a8 8 0 0 0-8-8Z"/><path fill="url(#c)" d="M24 0H8a8 8 0 0 0-8 8v16a8 8 0 0 0 8 8h16a8 8 0 0 0 8-8V8a8 8 0 0 0-8-8Z"/><g fill="#fff" fill-opacity=".9" filter="url(#d)"><path d="M11.133 22.051a.783.783 0 0 1 .417-.894l11.59-5.266a.54.54 0 0 1 .767.357l.418 1.493a.783.783 0 0 1-.417.895L12.318 23.9a.54.54 0 0 1-.768-.357l-.417-1.493Zm-1.23-3.812a.782.782 0 0 1 .417-.895l11.591-5.265a.54.54 0 0 1 .767.357l.417 1.492a.783.783 0 0 1-.416.895l-11.591 5.265a.54.54 0 0 1-.767-.357l-.418-1.492Zm-1.228-3.805a.783.783 0 0 1 .417-.895l11.59-5.265a.54.54 0 0 1 .767.357l.418 1.493a.782.782 0 0 1-.417.894L9.86 16.285a.54.54 0 0 1-.768-.357l-.417-1.493Z"/></g><path fill="#313234" d="M47.01 12.092v2.273h-6.57v-2.273h6.57ZM41.932 9.48h3.026v10.17c0 .28.042.497.127.653a.704.704 0 0 0 .355.32c.157.062.337.093.54.093.142 0 .284-.012.426-.036l.327-.064.476 2.252a8.515 8.515 0 0 1-.64.163 5.124 5.124 0 0 1-1 .12c-.73.029-1.37-.068-1.918-.29a2.676 2.676 0 0 1-1.272-1.038c-.303-.468-.452-1.06-.447-1.775V9.479Zm11.86 13.736c-1.102 0-2.057-.235-2.861-.704a4.81 4.81 0 0 1-1.854-1.974c-.436-.848-.654-1.83-.654-2.947 0-1.127.218-2.112.654-2.955a4.754 4.754 0 0 1 1.854-1.974c.804-.474 1.759-.71 2.862-.71 1.103 0 2.055.236 2.855.71a4.74 4.74 0 0 1 1.86 1.974c.436.843.654 1.828.654 2.955 0 1.117-.218 2.1-.653 2.947a4.797 4.797 0 0 1-1.861 1.974c-.8.47-1.752.704-2.855.704Zm.015-2.344c.502 0 .92-.142 1.257-.426.336-.29.59-.682.76-1.18.175-.497.263-1.062.263-1.697 0-.634-.088-1.2-.263-1.697-.17-.497-.424-.89-.76-1.18-.336-.288-.755-.433-1.257-.433-.507 0-.933.145-1.279.434-.34.289-.598.682-.774 1.179-.17.497-.255 1.063-.255 1.697 0 .635.085 1.2.255 1.698.176.497.434.89.775 1.179.345.284.771.426 1.278.426Zm7.38 2.13V8.456h3.025v5.469h.092a4 4 0 0 1 .575-.895 3.02 3.02 0 0 1 .995-.767c.412-.209.923-.313 1.534-.313a4.1 4.1 0 0 1 2.201.625c.673.412 1.21 1.035 1.613 1.868.402.829.603 1.868.603 3.118 0 1.217-.196 2.244-.59 3.082-.387.834-.918 1.466-1.59 1.897a4.084 4.084 0 0 1-2.244.639c-.587 0-1.087-.097-1.499-.291a3.1 3.1 0 0 1-1.001-.732 3.714 3.714 0 0 1-.597-.902h-.135v1.747h-2.983Zm2.96-5.454c0 .648.09 1.214.27 1.697.18.483.441.86.782 1.13.34.265.755.397 1.243.397.492 0 .909-.135 1.25-.405.34-.274.599-.653.774-1.136.18-.488.27-1.049.27-1.683 0-.63-.088-1.184-.263-1.662-.175-.478-.433-.852-.774-1.122-.34-.27-.76-.405-1.257-.405-.493 0-.91.13-1.25.39-.336.261-.594.63-.774 1.109-.18.478-.27 1.041-.27 1.69Zm14.669 5.668c-1.122 0-2.088-.228-2.898-.682a4.668 4.668 0 0 1-1.86-1.946c-.436-.843-.654-1.84-.654-2.99 0-1.123.218-2.107.653-2.955a4.83 4.83 0 0 1 1.84-1.981c.795-.474 1.728-.71 2.798-.71.72 0 1.39.115 2.01.347.625.227 1.17.57 1.633 1.03.47.46.834 1.037 1.094 1.733.26.691.39 1.501.39 2.429v.831h-9.21v-1.875h6.363c0-.436-.095-.822-.284-1.158a2.035 2.035 0 0 0-.789-.788 2.248 2.248 0 0 0-1.157-.291c-.46 0-.867.106-1.222.32a2.24 2.24 0 0 0-.824.845c-.198.35-.3.74-.305 1.171v1.783c0 .54.1 1.006.298 1.4.204.392.49.695.86.908.369.213.807.32 1.313.32.337 0 .645-.047.924-.142a1.92 1.92 0 0 0 .717-.426c.199-.19.35-.422.455-.696l2.798.184a3.822 3.822 0 0 1-.874 1.762c-.435.497-.999.885-1.69 1.164-.686.275-1.48.413-2.38.413Zm10.007-14.76v14.546h-3.026V8.456h3.026Zm2.424 14.546v-10.91h3.025v10.91h-3.026Zm1.52-12.315c-.45 0-.836-.15-1.158-.447a1.45 1.45 0 0 1-.476-1.087c0-.417.159-.774.476-1.072a1.63 1.63 0 0 1 1.157-.455c.45 0 .834.152 1.151.455.322.298.483.655.483 1.072 0 .421-.16.784-.483 1.087a1.62 1.62 0 0 1-1.15.447Zm13.005 4.517-2.77.17a1.43 1.43 0 0 0-.305-.639 1.616 1.616 0 0 0-.618-.461 2.097 2.097 0 0 0-.902-.178c-.469 0-.864.1-1.186.298-.322.195-.483.455-.483.782 0 .26.104.48.313.66.208.18.565.325 1.072.433l1.975.398c1.06.218 1.851.568 2.372 1.051.521.483.781 1.118.781 1.904 0 .715-.211 1.342-.632 1.882-.417.54-.99.961-1.719 1.264-.724.298-1.56.448-2.507.448-1.444 0-2.595-.301-3.452-.902-.852-.607-1.352-1.43-1.498-2.472l2.976-.156c.09.44.307.776.653 1.008.346.227.788.341 1.328.341.53 0 .957-.102 1.279-.305.326-.209.492-.476.497-.803a.836.836 0 0 0-.348-.675c-.228-.18-.578-.317-1.051-.412l-1.89-.376c-1.065-.213-1.858-.582-2.379-1.108-.516-.526-.774-1.195-.774-2.01 0-.7.19-1.304.568-1.81.384-.508.921-.898 1.612-1.173.696-.274 1.511-.412 2.443-.412 1.378 0 2.463.292 3.253.874.796.582 1.26 1.375 1.392 2.38Zm7.957-3.11v2.272h-6.57v-2.273h6.57Zm-5.078-2.614h3.025v10.17c0 .28.043.497.128.653a.705.705 0 0 0 .355.32c.156.062.336.093.54.093.142 0 .284-.012.426-.036l.327-.064.476 2.252a8.567 8.567 0 0 1-.64.163 5.113 5.113 0 0 1-1.001.12c-.729.029-1.368-.068-1.918-.29a2.678 2.678 0 0 1-1.271-1.038c-.303-.468-.452-1.06-.447-1.775V9.479Zm8.817 13.707a1.66 1.66 0 0 1-1.207-.497 1.658 1.658 0 0 1-.498-1.207c0-.465.166-.862.498-1.194a1.658 1.658 0 0 1 1.207-.497c.455 0 .852.166 1.193.497.341.332.512.73.512 1.194 0 .312-.081.599-.242.859a1.832 1.832 0 0 1-.618.618 1.624 1.624 0 0 1-.845.227Zm7.214-6.491V23h-3.025V12.092h2.883v1.925h.128a3.042 3.042 0 0 1 1.214-1.506c.569-.374 1.258-.56 2.067-.56.758 0 1.418.165 1.982.496a3.385 3.385 0 0 1 1.314 1.42c.312.612.468 1.34.468 2.188v6.946h-3.025v-6.406c.005-.667-.166-1.188-.512-1.562-.345-.38-.821-.569-1.427-.569-.407 0-.767.088-1.08.263a1.834 1.834 0 0 0-.724.767c-.17.332-.258.732-.263 1.2Zm14.388 6.52c-1.123 0-2.088-.228-2.898-.682a4.671 4.671 0 0 1-1.861-1.946c-.436-.843-.653-1.84-.653-2.99 0-1.123.217-2.107.653-2.955a4.832 4.832 0 0 1 1.84-1.981c.795-.474 1.728-.71 2.798-.71.72 0 1.39.115 2.01.347.625.227 1.169.57 1.633 1.03.469.46.834 1.037 1.094 1.733.26.691.391 1.501.391 2.429v.831h-9.212v-1.875h6.364c0-.436-.095-.822-.284-1.158a2.042 2.042 0 0 0-.789-.788 2.246 2.246 0 0 0-1.157-.291c-.46 0-.867.106-1.222.32-.35.208-.625.49-.824.845-.199.35-.301.74-.305 1.171v1.783c0 .54.099 1.006.298 1.4.204.392.49.695.859.908.37.213.808.32 1.314.32.336 0 .644-.047.924-.142.279-.095.518-.237.717-.426.199-.19.35-.422.454-.696l2.799.184a3.815 3.815 0 0 1-.874 1.762c-.435.497-.999.885-1.69 1.164-.687.275-1.48.413-2.379.413Zm12.784-11.123v2.273h-6.57v-2.273h6.57Zm-5.078-2.613h3.025v10.17c0 .28.043.497.128.653a.705.705 0 0 0 .355.32c.156.062.336.093.54.093.142 0 .284-.012.426-.036l.327-.064.476 2.252a8.567 8.567 0 0 1-.64.163 5.113 5.113 0 0 1-1.001.12c-.729.029-1.368-.068-1.918-.29a2.678 2.678 0 0 1-1.271-1.038c-.303-.468-.452-1.06-.447-1.775V9.479Z"/></g><defs><linearGradient id="b" x1="23.556" x2="2.222" y1="0" y2="32" gradientUnits="userSpaceOnUse"><stop offset=".083" stop-color="#808BF7"/><stop offset="1" stop-color="#483DD0"/></linearGradient><linearGradient id="c" x1="23.556" x2="2.222" y1="0" y2="32" gradientUnits="userSpaceOnUse"><stop offset=".083" stop-color="#2463FF"/><stop offset="1" stop-color="#195BFF"/></linearGradient><clipPath id="a"><path fill="#fff" d="M0 0h153v32H0z"/></clipPath><filter id="d" width="21.701" height="21.734" x="5.649" y="6.219" color-interpolation-filters="sRGB" filterUnits="userSpaceOnUse"><feFlood flood-opacity="0" result="BackgroundImageFix"/><feColorMatrix in="SourceAlpha" result="hardAlpha" values="0 0 0 0 0 0 0 0 0 0 0 0 0 0 0 0 0 0 127 0"/><feOffset dy="1"/><feGaussianBlur stdDeviation="1.5"/><feColorMatrix values="0 0 0 0 0.0745098 0 0 0 0 0.101961 0 0 0 0 0.160784 0 0 0 0.3 0"/><feBlend in2="BackgroundImageFix" result="effect1_dropShadow_1452_5273"/><feBlend in="SourceGraphic" in2="effect1_dropShadow_1452_5273" result="shape"/></filter></defs></svg>
